X:1122
T:Banish Misfortune
M:6/8
L:1/8
R:Jig
K:G maj
|:e|fed cAG|A2d cAG|F3DED|F3G3|AGA cAG|AGA d2e|fed cAG|Ad^cd2:|:e|f2d
d^cd|f2g agf|e3 cBc|e2f gfe|f2g afd|e2f gag|fed cAG|Ad^cd2:|:e|f2ge2f
|d2e c2d|A3G3|FAF GED|c3 cAG|AGA d2e|fed cAG|Ad^cd2:|


